X: 39
T: TWIXT DON AND DEE
C: Andrew Rankine
R: march
B: "The Complete Andrew Rankine Collection of Scottish Country Dance Tunes" p.42
Z: 2017 John Chambers <jc:trillian.mit.edu>
M: 2/4
L: 1/16
K: D
AG |\
"D"F2A2 d2 ed | "A7"c2e2 A2 ed | c2e2 A2 ec | "D"d2f2 A3G |\
F2A2 d2 ed | "A7"c2e2 A2 ed | c2e2 ABcA | "D"d4- d2 :|
|: FG |\
"D"A2F2 "B7"A2 BA | "Em"G2E2 G4 | "A7"c2A2 e2 Bc | "D"d2F2 A2 FG |\
A2F2 "B7"A2 BA | "Em"G2E2 G4 | "A7"c2e2 ABcA | "D"d4- d2 :|

%%sep 1 1 500

